polaris-icons/icons/new-icons/CollectionReferenceMinor.svg

<svg width="20" height="20" viewBox="0 0 20 20" fill="none" xmlns="http://www.w3.org/2000/svg">
<path d="M12.5 6.5C12.5 7.05228 12.0523 7.5 11.5 7.5C10.9477 7.5 10.5 7.05228 10.5 6.5C10.5 5.94772 10.9477 5.5 11.5 5.5C12.0523 5.5 12.5 5.94772 12.5 6.5Z" fill="#4A4A4A"/>
<path fill-rule="evenodd" clip-rule="evenodd" d="M10.1686 3C9.17401 3 8.22018 3.39509 7.51692 4.09835L3.63389 7.98138C2.55994 9.05532 2.55995 10.7965 3.63389 11.8705L6.30631 14.5429C7.28262 15.5192 8.86553 15.5192 9.84184 14.5429L14.0481 10.3366C14.6576 9.72714 15 8.9005 15 8.03854V5.75C15 4.23122 13.7688 3 12.25 3H10.1686ZM8.57758 5.15901C8.99954 4.73705 9.57183 4.5 10.1686 4.5H12.25C12.9404 4.5 13.5 5.05965 13.5 5.75V8.03854C13.5 8.50267 13.3156 8.94779 12.9874 9.27598L8.78118 13.4822C8.39066 13.8728 7.75749 13.8728 7.36697 13.4822L4.69455 10.8098C4.20639 10.3217 4.20639 9.5302 4.69455 9.04204L8.57758 5.15901Z" fill="#4A4A4A"/>
<path d="M17.5 6.25C17.5 5.83579 17.1642 5.5 16.75 5.5C16.3358 5.5 16 5.83579 16 6.25V9.21447C16 9.6786 15.8156 10.1237 15.4874 10.4519L15.4697 10.4697C15.1768 10.7626 15.1768 11.2374 15.4697 11.5303C15.7626 11.8232 16.2374 11.8232 16.5303 11.5303L16.5481 11.5126C17.1576 10.9031 17.5 10.0764 17.5 9.21447V6.25Z" fill="#4A4A4A"/>
<path d="M17.5305 16.4695C17.8234 16.7624 17.8233 17.2373 17.5304 17.5302C17.2375 17.8231 16.7627 17.823 16.4698 17.5301L14.2502 15.3104L14.2502 16.5C14.2501 16.9142 13.9144 17.25 13.5001 17.25C13.0859 17.25 12.7501 16.9142 12.7502 16.5L12.7502 13.4996C12.7502 13.3007 12.8292 13.1099 12.9699 12.9693C13.1105 12.8286 13.3013 12.7496 13.5002 12.7496L16.5002 12.7499C16.9144 12.7499 17.2502 13.0857 17.2502 13.4999C17.2501 13.9141 16.9143 14.2499 16.5001 14.2499L15.3109 14.2498L17.5305 16.4695Z" fill="#4A4A4A"/>
</svg>

<svg viewBox="0 0 20 20" xmlns="http://www.w3.org/2000/svg"><path d="M12.5 6.5a1 1 0 1 1-2 0 1 1 0 0 1 2 0Z" fill="#5C5F62"/><path fill-rule="evenodd" d="M10.169 3a3.75 3.75 0 0 0-2.652 1.098l-3.883 3.883a2.75 2.75 0 0 0 0 3.89l2.672 2.672a2.5 2.5 0 0 0 3.536 0l4.206-4.206a3.25 3.25 0 0 0 .952-2.298v-2.289a2.75 2.75 0 0 0-2.75-2.75h-2.081Zm-1.591 2.159a2.25 2.25 0 0 1 1.59-.659h2.082c.69 0 1.25.56 1.25 1.25v2.289c0 .464-.184.909-.513 1.237l-4.206 4.206a1 1 0 0 1-1.414 0l-2.672-2.672a1.25 1.25 0 0 1 0-1.768l3.883-3.883Z" fill="#5C5F62"/><path d="M17.5 6.25a.75.75 0 0 0-1.5 0v2.964c0 .465-.184.91-.513 1.238l-.017.018a.75.75 0 1 0 1.06 1.06l.018-.017a3.25 3.25 0 0 0 .952-2.299v-2.964Z" fill="#5C5F62"/><path d="M17.53 16.47a.75.75 0 0 1-1.06 1.06l-2.22-2.22v1.19a.75.75 0 0 1-1.5 0v-3a.75.75 0 0 1 .75-.75h3a.75.75 0 1 1 0 1.5h-1.19l2.22 2.22Z" fill="#5C5F62"/></svg>
